core/assets/icons/camera.svg

<svg width="24" height="24" viewBox="0 0 24 24" xmlns="http://www.w3.org/2000/svg"><g id="camera"><path id="Vector" d="M9.828 5L7.828 7H4V19H20V7H16.172L14.172 5H9.828ZM9 3H15L17 5H21C21.2652 5 21.5196 5.10536 21.7071 5.29289C21.8946 5.48043 22 5.73478 22 6V20C22 20.2652 21.8946 20.5196 21.7071 20.7071C21.5196 20.8946 21.2652 21 21 21H3C2.73478 21 2.48043 20.8946 2.29289 20.7071C2.10536 20.5196 2 20.2652 2 20V6C2 5.73478 2.10536 5.48043 2.29289 5.29289C2.48043 5.10536 2.73478 5 3 5H7L9 3ZM12 18C10.5413 18 9.14236 17.4205 8.11091 16.3891C7.07946 15.3576 6.5 13.9587 6.5 12.5C6.5 11.0413 7.07946 9.64236 8.11091 8.61091C9.14236 7.57946 10.5413 7 12 7C13.4587 7 14.8576 7.57946 15.8891 8.61091C16.9205 9.64236 17.5 11.0413 17.5 12.5C17.5 13.9587 16.9205 15.3576 15.8891 16.3891C14.8576 17.4205 13.4587 18 12 18ZM12 16C12.9283 16 13.8185 15.6313 14.4749 14.9749C15.1313 14.3185 15.5 13.4283 15.5 12.5C15.5 11.5717 15.1313 10.6815 14.4749 10.0251C13.8185 9.36875 12.9283 9 12 9C11.0717 9 10.1815 9.36875 9.52513 10.0251C8.86875 10.6815 8.5 11.5717 8.5 12.5C8.5 13.4283 8.86875 14.3185 9.52513 14.9749C10.1815 15.6313 11.0717 16 12 16V16Z"/></g></svg>

<svg xmlns="http://www.w3.org/2000/svg" width="24" height="24" fill="none"><path fill="#191C22" d="m9.828 5-2 2H4v12h16V7h-3.828l-2-2H9.828ZM9 3h6l2 2h4a1 1 0 0 1 1 1v14a1 1 0 0 1-1 1H3a1 1 0 0 1-1-1V6a1 1 0 0 1 1-1h4l2-2Zm3 15a5.5 5.5 0 1 1 0-11 5.5 5.5 0 0 1 0 11Zm0-2a3.5 3.5 0 1 0 0-7 3.5 3.5 0 0 0 0 7Z"/></svg>
